src/images/icons/inst-red.svg

<svg width="24" height="24" viewBox="0 0 24 24" fill="none" xmlns="http://www.w3.org/2000/svg">
<path d="M11.9365 6.06885C8.97358 6.06885 6.51855 8.48155 6.51855 11.4868C6.51855 14.4921 8.93125 16.9048 11.9365 16.9048C14.9418 16.9048 17.3545 14.4498 17.3545 11.4868C17.3545 8.52387 14.8995 6.06885 11.9365 6.06885ZM11.9365 14.9577C10.0318 14.9577 8.46564 13.3916 8.46564 11.4868C8.46564 9.58207 10.0318 8.01594 11.9365 8.01594C13.8413 8.01594 15.4074 9.58207 15.4074 11.4868C15.4074 13.3916 13.8413 14.9577 11.9365 14.9577Z" fill="#F03E3E"/>
<path d="M17.5661 7.16938C18.2441 7.16938 18.7936 6.61981 18.7936 5.94187C18.7936 5.26393 18.2441 4.71436 17.5661 4.71436C16.8882 4.71436 16.3386 5.26393 16.3386 5.94187C16.3386 6.61981 16.8882 7.16938 17.5661 7.16938Z" fill="#F03E3E"/>
<path d="M20.7408 2.76719C19.6403 1.62433 18.0741 1.03174 16.2964 1.03174H7.57678C3.89424 1.03174 1.43921 3.48676 1.43921 7.1693V15.8466C1.43921 17.6667 2.0318 19.2328 3.21699 20.3757C4.35984 21.4762 5.88365 22.0264 7.6191 22.0264H16.254C18.0741 22.0264 19.5979 21.4339 20.6985 20.3757C21.8413 19.2751 22.4339 17.709 22.4339 15.8889V7.1693C22.4339 5.39153 21.8413 3.86772 20.7408 2.76719ZM20.5715 15.8889C20.5715 17.2011 20.1059 18.2593 19.344 18.9788C18.5821 19.6984 17.5239 20.0794 16.254 20.0794H7.6191C6.34926 20.0794 5.29106 19.6984 4.52916 18.9788C3.76725 18.2169 3.3863 17.1587 3.3863 15.8466V7.1693C3.3863 5.89946 3.76725 4.84126 4.52916 4.07936C5.24873 3.35978 6.34926 2.97883 7.6191 2.97883H16.3387C17.6085 2.97883 18.6667 3.35978 19.4286 4.12169C20.1482 4.88359 20.5715 5.94179 20.5715 7.1693V15.8889Z" fill="#F03E3E"/>
</svg>

<svg width="24" height="24" fill="none" xmlns="http://www.w3.org/2000/svg"><path d="M11.937 6.069c-2.963 0-5.418 2.413-5.418 5.418a5.401 5.401 0 0 0 5.418 5.418c3.005 0 5.418-2.455 5.418-5.418s-2.456-5.418-5.418-5.418Zm0 8.889a3.487 3.487 0 0 1-3.471-3.471 3.487 3.487 0 0 1 3.47-3.471 3.487 3.487 0 0 1 3.471 3.47 3.487 3.487 0 0 1-3.47 3.472Zm5.629-7.788a1.227 1.227 0 1 0 0-2.456 1.227 1.227 0 0 0 0 2.455Z" fill="#F03E3E"/><path d="M20.74 2.767c-1.1-1.143-2.666-1.735-4.444-1.735h-8.72c-3.682 0-6.137 2.455-6.137 6.137v8.678c0 1.82.593 3.386 1.778 4.529 1.143 1.1 2.667 1.65 4.402 1.65h8.635c1.82 0 3.344-.592 4.444-1.65 1.143-1.1 1.736-2.667 1.736-4.487v-8.72c0-1.777-.593-3.301-1.693-4.402Zm-.168 13.122c0 1.312-.466 2.37-1.228 3.09-.762.72-1.82 1.1-3.09 1.1H7.619c-1.27 0-2.328-.38-3.09-1.1-.762-.762-1.143-1.82-1.143-3.132V7.169c0-1.27.381-2.328 1.143-3.09.72-.72 1.82-1.1 3.09-1.1h8.72c1.27 0 2.328.38 3.09 1.143.72.762 1.143 1.82 1.143 3.047v8.72Z" fill="#F03E3E"/></svg>
